X:12949
T: Lieder-Walzer G (wz07255) 
S:Hanny Christen. Bd.V  Basel II, Jura. S.104  (wz07255) orig. C,G
T: Basel II. Tänze aus Liestal. S.95-112.
S:Überliefert durch Alfred Gisin-Oester und Max Meyer, 1942
%%MIDI program 21
R:Walzer
M:3/4
L:1/4
K:G %%MIDI gchordon
"G"d3 | dBe | d3 | dBg | "D7"f3 | fef | "G"g3 | "C"gfe | "G"d3 | dBe | 
d3 | dBg | "D7"f3 | fef | ("G"g3 | g)zz :| "C"g3 | gfe | "G"d3 | dcB | 
"D7"A3 | ABc | "G"B3 | GBd | "C"g3 | gfe | "G"d3 | dcB | "D7"A3 | ABA | 
("G"G3 | G)zd || "G"ba/g/ f/e/ | d2d | ba/g/ f/e/ | d2d | "D7"c'b/a/ g/f/ | e/d/ ^c/d/ e/d/ | A3 | 
d2d | "G"ba/g/ f/e/ | d2d | ba/g/ f/e/ | d2d | "D7"c'b/a/ g/f/ | e/d/ ^c/d/ e/f/ | "G"gdb | gzz |] 
W:
W:Anmerkung H.C.: Tann/Rüti, Zch. 23
% wz07255 
% March 22, 2018 (E.M.G. Chibi's birthday)

